src/icons/svg/passkey.svg

<?xml version="1.0" encoding="UTF-8"?>
<svg width="40px" height="48px" viewBox="0 0 40 48" version="1.1" xmlns="http://www.w3.org/2000/svg"
>
    <path d="M19.9517297,0 L0,7.59452938 L0,20.8205953 C0.0191387404,28.2792918 3.60819498,35.2779515 9.65406276,39.6460177 L19.9517297,47.2083669 L30.3459372,39.6460177 C36.391805,35.2779515 39.9808613,28.2792918 40,20.8205953 L40,7.59452938 L19.9517297,0 Z M36.5888979,20.8205953 C36.5768404,27.1858875 33.5283113,33.1633956 28.3829445,36.9107 L19.9517297,43.0893001 L11.5526951,36.9428802 C6.34127403,33.2236991 3.23911567,27.222999 3.21802089,20.8205953 L3.21802089,9.87932421 L19.8551891,3.44328239 L36.4923572,9.87932421 L36.5888979,20.8205953 Z"
          id="形状"></path>
    <path d="M19.9517297,11.9388576 C16.6274797,11.9915165 13.8510266,14.4872304 13.4456385,17.7870896 C13.0402504,21.0869489 15.1300636,24.1804842 18.3427192,25.0362027 L18.3427192,33.7892196 C18.3026625,34.2270129 18.4592687,34.6599612 18.7701284,34.9708209 C19.0809881,35.2816806 19.5139364,35.4382868 19.9517297,35.3982301 C20.4124826,35.4635337 20.8771239,35.3083687 21.2061815,34.9793111 C21.5352392,34.6502535 21.6904042,34.1856122 21.6251005,33.7248592 L21.6251005,31.2148029 L23.2984715,31.2148029 C23.7592244,31.2801066 24.2238657,31.1249415 24.5529233,30.7958839 C24.8819809,30.4668263 25.037146,30.002185 24.9718423,29.541432 C25.0260646,29.0858598 24.865985,28.6308942 24.538439,28.3096471 C24.210893,27.9884001 23.752905,27.8371841 23.2984715,27.9002414 L21.6251005,27.9002414 L21.6251005,25.2614642 L21.6251005,25.0362027 C24.8482627,24.1762934 26.9383499,21.0648044 26.5155784,17.7558042 C26.0928069,14.4468039 23.2875562,11.9607635 19.9517297,11.9388576 L19.9517297,11.9388576 Z M23.1697506,18.6001609 C23.1697506,19.9017289 22.385705,21.0751361 21.183213,21.5732246 C19.980721,22.0713131 18.5965928,21.7959929 17.6762453,20.8756453 C16.7558977,19.9552978 16.4805775,18.5711696 16.978666,17.3686776 C17.4767545,16.1661856 18.6501617,15.38214 19.9517297,15.38214 C20.8272786,15.3470897 21.6792598,15.6705929 22.3108899,16.2779295 C22.94252,16.8852662 23.2991728,17.723911 23.2984725,18.6001609 L23.1697506,18.6001609 Z"
          id="形状"></path>
</svg>

<svg width="40" height="48" xmlns="http://www.w3.org/2000/svg"><path d="M19.952 0L0 7.595V20.82a23.298 23.298 0 0 0 9.654 18.825l10.298 7.562 10.394-7.562A23.298 23.298 0 0 0 40 20.821V7.595L19.952 0zm16.637 20.82a19.952 19.952 0 0 1-8.206 16.09l-8.431 6.18-8.4-6.147A19.887 19.887 0 0 1 3.219 20.82V9.879l16.637-6.436L36.492 9.88l.097 10.942z"/><path d="M19.952 11.939a6.661 6.661 0 0 0-1.61 13.097v8.753a1.48 1.48 0 0 0 1.61 1.61 1.48 1.48 0 0 0 1.673-1.674v-2.51h1.673a1.48 1.48 0 0 0 1.674-1.674 1.48 1.48 0 0 0-1.674-1.64h-1.673v-2.865a6.661 6.661 0 0 0-1.673-13.097zM23.17 18.6a3.218 3.218 0 1 1-3.218-3.218 3.218 3.218 0 0 1 3.346 3.218h-.128z"/></svg>
